icons/iron.svg

<?xml version="1.0" encoding="UTF-8"?>
<svg width="512px" height="173px" viewBox="0 0 512 173" version="1.1" xmlns="http://www.w3.org/2000/svg" xmlns:xlink="http://www.w3.org/1999/xlink" preserveAspectRatio="xMidYMid">
    <g>
				<path d="M87.8878981,71.8267516 L108.270064,68.7286624 L109.411465,58.456051 L43.2101911,58.456051 L44.3515924,68.7286624 L64.733758,71.8267516 C66.0382166,71.9898089 66.8535032,73.1312102 66.8535032,74.2726115 L66.8535032,98.0789809 C66.8535032,99.3834395 65.8751592,100.361783 64.733758,100.524841 L44.3515924,103.62293 L43.2101911,113.895541 L109.248408,113.895541 L108.107006,103.62293 L87.7248408,100.524841 C86.4203822,100.361783 85.6050955,99.2203822 85.6050955,98.0789809 L85.6050955,74.2726115 C85.7681529,72.9681529 86.5834395,71.9898089 87.8878981,71.8267516 Z" fill="#3177BC"></path>
				<path d="M146.26242,38.5630573 L82.5070064,1.71210191 C78.5936306,-0.570700637 73.8649682,-0.570700637 69.9515924,1.71210191 L6.19617834,38.5630573 C2.44585987,40.8458599 0,44.922293 0,49.3248408 L0,122.863694 C0,127.266242 2.44585987,131.505732 6.19617834,133.625478 L69.9515924,170.476433 C71.9082803,171.617834 74.0280255,172.107006 76.1477707,172.107006 C78.2675159,172.107006 80.5503185,171.454777 82.343949,170.476433 L146.26242,133.788535 C150.175796,131.505732 152.458599,127.429299 152.458599,123.026752 L152.458599,49.3248408 C152.458599,44.922293 150.175796,40.8458599 146.26242,38.5630573 Z M110.715924,99.0573248 C111.857325,99.2203822 112.672611,100.198726 112.835669,101.17707 L114.466242,116.178344 C114.466242,116.830573 114.303185,117.64586 113.814013,118.135032 C113.324841,118.624204 112.672611,118.950318 112.020382,118.950318 L40.4382166,118.950318 C39.7859873,118.950318 39.133758,118.624204 38.644586,118.135032 C38.155414,117.64586 37.9923567,116.830573 37.9923567,116.178344 L39.6229299,101.17707 C39.7859873,100.035669 40.6012739,99.2203822 41.7426752,99.0573248 L61.7987261,96.122293 L61.7987261,76.555414 L41.7426752,73.4573248 C40.6012739,73.2942675 39.7859873,72.3159236 39.6229299,71.3375796 L37.9923567,56.3363057 C37.9923567,55.6840764 38.155414,54.8687898 38.644586,54.3796178 C39.133758,53.8904459 39.7859873,53.5643312 40.4382166,53.5643312 L112.020382,53.5643312 C112.672611,53.5643312 113.324841,53.8904459 113.814013,54.3796178 C114.303185,54.8687898 114.466242,55.6840764 114.466242,56.3363057 L112.835669,71.3375796 C112.672611,72.4789809 111.857325,73.2942675 110.715924,73.4573248 L90.6598726,76.3923567 L90.6598726,95.9592357 L110.715924,99.0573248 Z" fill="#3177BC"></path>
				<path d="M376.010191,55.6840764 C352.856051,55.6840764 334.104459,73.7834395 334.104459,96.122293 C334.104459,118.461146 352.856051,136.56051 376.010191,136.56051 C399.164331,136.56051 417.915924,118.461146 417.915924,96.122293 C417.915924,73.9464968 399.164331,55.6840764 376.010191,55.6840764 L376.010191,55.6840764 Z M397.044586,96.2853503 C397.044586,108.51465 387.587261,118.461146 376.010191,118.461146 C364.433121,118.461146 354.975796,108.51465 354.975796,96.2853503 C354.975796,84.056051 364.433121,74.1095541 376.010191,74.1095541 C387.587261,74.1095541 397.044586,83.8929936 397.044586,96.2853503 L397.044586,96.2853503 Z M261.543949,38.0738854 L242.140127,38.0738854 C241.487898,38.0738854 240.998726,38.5630573 240.998726,39.2152866 L240.998726,134.766879 C240.998726,135.419108 241.487898,135.90828 242.140127,135.90828 L261.543949,135.90828 C262.196178,135.90828 262.68535,135.419108 262.68535,134.766879 L262.68535,39.0522293 C262.68535,38.5630573 262.196178,38.0738854 261.543949,38.0738854 Z M328.234395,55.6840764 C322.038217,55.8471338 316.657325,57.1515924 311.928662,59.9235669 C308.341401,62.0433121 305.406369,64.8152866 302.96051,68.4025478 L302.96051,57.477707 C302.96051,56.8254777 302.471338,56.3363057 301.819108,56.3363057 L283.067516,56.3363057 C282.415287,56.3363057 281.926115,56.8254777 281.926115,57.477707 L281.926115,134.766879 C281.926115,135.419108 282.415287,135.90828 283.067516,135.90828 L301.819108,135.90828 C302.471338,135.90828 302.96051,135.419108 302.96051,134.766879 L302.96051,97.4267516 C302.96051,90.7414013 305.243312,85.1974522 309.808917,81.2840764 C313.88535,77.6968153 319.266242,75.9031847 325.788535,75.9031847 L328.071338,75.9031847 C328.397452,75.9031847 328.56051,75.7401274 328.886624,75.5770701 C329.049682,75.4140127 329.212739,75.0878981 329.212739,74.7617834 L329.212739,56.6624204 C329.212739,56.3363057 329.049682,56.0101911 328.886624,55.8471338 C328.886624,55.6840764 328.56051,55.6840764 328.234395,55.6840764 Z M502.86879,64 C497.650955,58.456051 490.313376,55.6840764 481.182166,55.6840764 C469.115924,55.8471338 460.310828,60.0866242 454.603822,68.0764331 L454.603822,57.477707 C454.603822,56.8254777 454.11465,56.3363057 453.46242,56.3363057 L434.710828,56.3363057 C434.058599,56.3363057 433.569427,56.8254777 433.569427,57.477707 L433.569427,134.766879 C433.569427,135.419108 434.058599,135.90828 434.710828,135.90828 L453.46242,135.90828 C454.11465,135.90828 454.603822,135.419108 454.603822,134.766879 L454.603822,96.7745223 C454.603822,90.5783439 456.397452,85.5235669 459.821656,81.6101911 C463.24586,77.6968153 467.811465,75.7401274 473.844586,75.5770701 C478.736306,75.5770701 482.812739,77.044586 485.584713,79.9796178 C488.519745,82.9146497 489.824204,86.9910828 489.824204,92.0458599 L489.824204,134.766879 C489.824204,135.419108 490.313376,135.90828 490.965605,135.90828 L509.880255,135.90828 C510.532484,135.90828 511.021656,135.419108 511.021656,134.766879 L511.021656,86.5019108 C510.858599,77.044586 508.249682,69.543949 502.86879,64 Z" fill="#2E343C"></path>
		</g>
</svg>

<svg xmlns="http://www.w3.org/2000/svg" viewBox="0 0 511.022 172.107">
  <path fill="#3177bc" d="m87.888 71.827 20.382-3.098 1.141-10.273h-66.2l1.14 10.273 20.383 3.098c1.304.163 2.12 1.304 2.12 2.446v23.806a2.47 2.47 0 0 1-2.12 2.446l-20.382 3.098-1.142 10.273h66.038l-1.141-10.273-20.382-3.098c-1.305-.163-2.12-1.305-2.12-2.446V74.273c.163-1.305.978-2.283 2.283-2.446z"/>
  <path fill="#3177bc" d="M146.262 38.563 82.507 1.713c-3.913-2.284-8.642-2.284-12.555 0L6.196 38.562C2.446 40.846 0 44.923 0 49.325v73.539c0 4.402 2.446 8.642 6.196 10.761l63.756 36.851c1.956 1.142 4.076 1.631 6.196 1.631s4.402-.652 6.196-1.63l63.918-36.688c3.914-2.283 6.197-6.36 6.197-10.762V49.325c0-4.403-2.283-8.48-6.197-10.762zm-35.546 60.494c1.141.163 1.957 1.142 2.12 2.12l1.63 15.001c0 .653-.163 1.468-.652 1.957-.49.49-1.141.815-1.794.815H40.438c-.652 0-1.304-.326-1.793-.815-.49-.49-.653-1.304-.653-1.957l1.63-15c.164-1.142.98-1.958 2.12-2.12L61.8 96.121V76.555l-20.056-3.098c-1.142-.163-1.957-1.141-2.12-2.12l-1.63-15c0-.653.162-1.468.652-1.957.489-.49 1.141-.816 1.793-.816h71.582c.653 0 1.305.326 1.794.816.49.489.652 1.304.652 1.956l-1.63 15.002c-.163 1.141-.979 1.956-2.12 2.12L90.66 76.391V95.96z"/>
  <path fill="#2e343c" d="M376.01 55.684c-23.154 0-41.906 18.1-41.906 40.438 0 22.34 18.752 40.439 41.906 40.439s41.906-18.1 41.906-40.439c0-22.176-18.752-40.438-41.906-40.438zm21.035 40.601c0 12.23-9.458 22.176-21.035 22.176s-21.034-9.946-21.034-22.176c0-12.229 9.457-22.175 21.034-22.175 11.577 0 21.035 9.783 21.035 22.175zM261.544 38.074H242.14c-.652 0-1.141.49-1.141 1.141v95.552c0 .652.489 1.141 1.141 1.141h19.404c.652 0 1.141-.489 1.141-1.141V39.052c0-.489-.489-.978-1.141-.978zm66.69 17.61c-6.196.163-11.577 1.468-16.305 4.24-3.588 2.12-6.523 4.891-8.968 8.479V57.478c0-.653-.49-1.142-1.142-1.142h-18.751c-.653 0-1.142.49-1.142 1.142v77.289c0 .652.49 1.141 1.142 1.141h18.751c.652 0 1.142-.489 1.142-1.141v-37.34c0-6.686 2.282-12.23 6.848-16.143 4.076-3.587 9.457-5.38 15.98-5.38h2.282c.326 0 .49-.164.816-.327.163-.163.326-.49.326-.815v-18.1c0-.326-.163-.652-.326-.815 0-.163-.326-.163-.653-.163zM502.87 64c-5.218-5.544-12.556-8.316-21.687-8.316-12.066.163-20.871 4.403-26.578 12.392V57.478c0-.653-.49-1.142-1.142-1.142h-18.751c-.652 0-1.142.49-1.142 1.142v77.289c0 .652.49 1.141 1.142 1.141h18.751c.653 0 1.142-.489 1.142-1.141V96.775c0-6.197 1.793-11.251 5.218-15.165 3.424-3.913 7.99-5.87 14.023-6.033 4.891 0 8.968 1.468 11.74 4.403 2.935 2.935 4.24 7.011 4.24 12.066v42.72c0 .653.488 1.142 1.14 1.142h18.915c.652 0 1.142-.489 1.142-1.141V86.502c-.163-9.457-2.772-16.958-8.153-22.502z"/>
</svg>
